src/assets/img/providers-white/ggames.svg

<svg width="130" height="32" viewBox="0 0 130 32" fill="none" xmlns="http://www.w3.org/2000/svg">
<g clip-path="url(#clip0_4132_8440)">
<path fill-rule="evenodd" clip-rule="evenodd" d="M17.03 0.000976562H16.652L0.800018 16.607V16.985L16.492 32.001H16.878L26.33 22.129C26.4261 22.0289 26.4786 21.8948 26.476 21.7561C26.4734 21.6174 26.4158 21.4853 26.316 21.389L17.85 13.255C17.566 12.9816 17.288 12.987 17.016 13.271L14.01 16.415C13.9576 16.4699 13.9164 16.5345 13.8889 16.6052C13.8614 16.6759 13.8481 16.7512 13.8497 16.8269C13.8514 16.9026 13.868 16.977 13.8986 17.046C13.9292 17.115 13.9732 17.1772 14.028 17.229L18.494 21.467C18.6179 21.5849 18.69 21.7471 18.6945 21.918C18.699 22.089 18.6355 22.2547 18.518 22.379L16.894 24.097C16.8451 24.1486 16.7865 24.1901 16.7215 24.2191C16.6566 24.2481 16.5866 24.264 16.5156 24.2658C16.4446 24.2677 16.374 24.2555 16.3078 24.2299C16.2416 24.2044 16.1812 24.166 16.13 24.117L8.69202 17.025C8.58542 16.9231 8.52363 16.7831 8.52026 16.6357C8.51688 16.4883 8.57219 16.3456 8.67402 16.239L16.622 7.90698C16.6697 7.85687 16.7269 7.81671 16.7902 7.78878C16.8535 7.76086 16.9218 7.74572 16.9911 7.74423C17.0604 7.74274 17.1294 7.75494 17.194 7.78012C17.2587 7.8053 17.3178 7.84297 17.368 7.89098L23.496 13.769C23.5929 13.8613 23.7225 13.9114 23.8563 13.9084C23.9901 13.9054 24.1173 13.8495 24.21 13.753L27.312 10.521C27.4005 10.4281 27.4486 10.3039 27.4456 10.1757C27.4426 10.0474 27.3888 9.92559 27.296 9.83698L17.03 0.000976562ZM48.86 19.225C49.624 19.2664 50.3727 19.2817 51.106 19.271C51.4616 19.2659 51.8433 19.2739 52.2401 19.2821C52.93 19.2965 53.6655 19.3118 54.388 19.261C54.4247 19.2583 54.4594 19.2433 54.4866 19.2182C54.5138 19.1932 54.5319 19.1597 54.538 19.123C54.5767 18.8857 54.5974 18.6517 54.6 18.421C54.6134 16.941 54.638 15.455 54.674 13.963C54.6927 13.167 54.672 12.4077 54.612 11.685C54.5894 11.425 54.448 11.2924 54.188 11.287L49.15 11.175C49.038 11.1737 48.9607 11.225 48.918 11.329C48.85 11.5024 48.8167 11.6884 48.818 11.887C48.842 14.2057 48.848 16.6437 48.836 19.201C48.836 19.217 48.844 19.225 48.86 19.225ZM50.91 17.347L50.932 13.147C50.9325 13.0853 50.9574 13.0263 51.0013 12.9829C51.0451 12.9394 51.1043 12.915 51.166 12.915L52.27 12.919C52.2973 12.9191 52.3243 12.9213 52.3495 12.9253C52.3747 12.9293 52.3976 12.9351 52.4167 12.9423C52.4359 12.9496 52.451 12.9582 52.4612 12.9675C52.4714 12.9769 52.4764 12.987 52.476 12.997L52.452 17.513C52.4513 17.533 52.4292 17.5519 52.3907 17.5658C52.3521 17.5796 52.3002 17.5873 52.246 17.587L51.142 17.583C51.1113 17.5828 51.0809 17.5765 51.0526 17.5644C51.0243 17.5524 50.9987 17.535 50.9771 17.5131C50.9556 17.4912 50.9386 17.4652 50.9271 17.4367C50.9156 17.4082 50.9098 17.3778 50.91 17.347ZM44.612 16.131L44.586 19.111C44.5847 19.239 44.52 19.3023 44.392 19.301L42.688 19.275C42.5787 19.2723 42.5247 19.2163 42.526 19.107C42.5527 16.9083 42.5447 14.7717 42.502 12.697C42.4974 12.4588 42.5137 12.2212 42.53 11.9829C42.5422 11.8029 42.5546 11.6225 42.558 11.441C42.5585 11.4083 42.5718 11.377 42.5949 11.3539C42.618 11.3307 42.6493 11.3175 42.682 11.317L47.866 11.259C48.074 11.2577 48.1773 11.3603 48.176 11.567L48.17 12.607C48.1687 12.855 48.044 12.9783 47.796 12.977L44.722 12.957C44.6393 12.957 44.598 12.9977 44.598 13.079L44.602 14.165C44.602 14.2397 44.6393 14.2777 44.714 14.279L46.432 14.299C46.684 14.3017 46.8147 14.429 46.824 14.681L46.858 15.545C46.8673 15.789 46.75 15.9177 46.506 15.931L44.72 16.019C44.6493 16.023 44.6133 16.0603 44.612 16.131ZM74.74 11.5989L74.724 14.2149C74.7235 14.2512 74.7087 14.2857 74.6829 14.3112C74.6571 14.3366 74.6223 14.3509 74.586 14.3509H73.196C73.1053 14.3509 73.0613 14.3062 73.064 14.2169C73.0947 13.3022 73.0753 12.3876 73.006 11.4729C72.9967 11.3409 72.926 11.2682 72.794 11.2549C72.25 11.1962 71.7407 11.2109 71.266 11.2989C71.0807 11.3336 70.9867 11.4442 70.984 11.6309C70.9387 13.9696 70.9493 16.3982 71.016 18.9169C71.0227 19.1702 71.1527 19.2909 71.406 19.2789L72.758 19.2149C72.9447 19.2069 73.0393 19.1089 73.042 18.9209L73.078 16.2109C73.0793 16.1042 73.1333 16.0509 73.24 16.0509H74.556C74.6105 16.0509 74.6628 16.0725 74.7017 16.111C74.7406 16.1495 74.7629 16.2019 74.764 16.2569L74.802 18.9989C74.8047 19.1949 74.9033 19.2889 75.098 19.2809L76.552 19.2209C76.7253 19.2129 76.812 19.1222 76.812 18.9489V11.5549C76.8119 11.5065 76.8018 11.4587 76.7822 11.4145C76.7626 11.3703 76.734 11.3307 76.6983 11.2981C76.6625 11.2656 76.6204 11.2408 76.5745 11.2254C76.5287 11.2101 76.4801 11.2045 76.432 11.2089C76.2684 11.2237 76.0959 11.2236 75.9216 11.2234C75.5782 11.2231 75.2278 11.2228 74.924 11.3369C74.8013 11.3809 74.74 11.4682 74.74 11.5989ZM88.648 17.571L89.896 17.517C90 17.513 90.058 17.459 90.07 17.355L90.088 17.205C90.104 17.069 90.0434 17.001 89.906 17.001H89.45C89.25 17.001 89.1467 16.901 89.14 16.701L89.122 16.203C89.1153 16.0123 89.208 15.911 89.4 15.899C90.268 15.8443 91.138 15.8463 92.01 15.905C92.1673 15.9156 92.2447 16.0003 92.242 16.159L92.204 18.987C92.2024 19.0761 92.1659 19.161 92.1023 19.2235C92.0387 19.286 91.9532 19.321 91.864 19.321H86.732C86.54 19.321 86.444 19.225 86.444 19.033L86.466 11.453C86.4661 11.4063 86.4823 11.3611 86.5119 11.3254C86.5415 11.2896 86.5826 11.2654 86.628 11.257C86.7987 11.2263 86.9727 11.2136 87.15 11.219C88.8034 11.2683 90.426 11.291 92.018 11.287C92.0416 11.287 92.0649 11.2916 92.0866 11.3007C92.1083 11.3098 92.128 11.3231 92.1446 11.3398C92.1611 11.3565 92.1742 11.3764 92.183 11.3982C92.1919 11.4201 92.1963 11.4434 92.196 11.467L92.192 14.145C92.1907 14.369 92.0787 14.4803 91.856 14.479L90.404 14.471C90.2293 14.4696 90.1427 14.3816 90.144 14.207L90.15 13.151C90.15 13.083 90.1167 13.049 90.05 13.049L88.696 13.055C88.6293 13.055 88.5954 13.0883 88.594 13.155L88.526 17.451C88.5247 17.5336 88.5653 17.5736 88.648 17.571ZM105.11 17.419L105.06 13.057C105.06 13.0393 105.063 13.0216 105.07 13.0051C105.076 12.9887 105.086 12.9737 105.099 12.961C105.111 12.9483 105.126 12.9383 105.142 12.9314C105.159 12.9246 105.176 12.921 105.194 12.921H106.594C106.61 12.921 106.626 12.9243 106.641 12.9305C106.655 12.9367 106.669 12.9458 106.68 12.9574C106.692 12.9689 106.701 12.9825 106.707 12.9976C106.713 13.0126 106.716 13.0288 106.716 13.045L106.672 18.979C106.671 19.1844 106.773 19.2844 106.978 19.279L108.536 19.245C108.609 19.2435 108.679 19.2133 108.73 19.1609C108.781 19.1086 108.81 19.0383 108.81 18.965L108.766 11.407C108.766 11.3337 108.729 11.297 108.654 11.297C105.782 11.2984 102.781 11.2717 99.65 11.217C99.5844 11.2159 99.5198 11.2331 99.4633 11.2666C99.4068 11.3001 99.3607 11.3488 99.33 11.407C99.294 11.4724 99.278 11.587 99.282 11.751C99.3353 14.0177 99.3506 16.425 99.328 18.973C99.3266 19.137 99.408 19.2197 99.572 19.221L101.048 19.225C101.208 19.225 101.285 19.145 101.28 18.985C101.216 16.8997 101.241 14.8897 101.354 12.955C101.358 12.8897 101.393 12.857 101.458 12.857L102.848 12.849C102.861 12.8488 102.874 12.8512 102.887 12.8561C102.899 12.861 102.91 12.8683 102.92 12.8776C102.929 12.8869 102.937 12.898 102.942 12.9103C102.947 12.9226 102.95 12.9357 102.95 12.949V17.401C102.95 17.601 103.05 17.701 103.25 17.701L104.832 17.699C105.019 17.699 105.111 17.6057 105.11 17.419ZM126.15 17.2131V16.2071C126.15 16.0791 126.085 16.0157 125.956 16.0171L122.94 16.0631C122.672 16.0671 122.535 15.9351 122.53 15.6671L122.462 11.5791C122.46 11.5093 122.485 11.4416 122.532 11.3895C122.578 11.3375 122.643 11.3051 122.712 11.2991C123.872 11.1999 125.016 11.2334 126.149 11.2667C126.775 11.285 127.398 11.3033 128.02 11.2991C128.224 11.2977 128.333 11.3991 128.348 11.6031L128.41 12.5031C128.426 12.7471 128.312 12.8664 128.068 12.8611C126.887 12.8384 125.856 12.8684 124.976 12.9511C124.82 12.9657 124.734 13.0511 124.718 13.2071L124.638 14.0431C124.622 14.1951 124.691 14.2724 124.844 14.2751L128.048 14.3391C128.219 14.3431 128.303 14.4304 128.3 14.6011L128.22 19.0571C128.219 19.1158 128.195 19.1717 128.152 19.2129C128.11 19.254 128.053 19.2771 127.994 19.2771L122.868 19.2731C122.7 19.2731 122.611 19.1884 122.602 19.0191L122.544 17.8591C122.542 17.8185 122.548 17.7779 122.562 17.7398C122.576 17.7017 122.597 17.6668 122.625 17.6372C122.653 17.6077 122.687 17.5841 122.724 17.5679C122.761 17.5517 122.801 17.5433 122.842 17.5431L125.84 17.5251C126.047 17.5237 126.15 17.4197 126.15 17.2131ZM57.4 19.0069V16.7509C57.4 16.5629 57.4527 16.5469 57.558 16.7029L59.016 18.8829C59.1867 19.1389 59.4247 19.2676 59.73 19.2689L61.052 19.2749C61.288 19.2749 61.3453 19.1743 61.224 18.9729L59.49 16.1049C59.458 16.0503 59.472 16.0123 59.532 15.9909C60.756 15.5589 61.352 14.7329 61.32 13.5129C61.284 12.1009 59.902 11.2649 58.598 11.2629C57.6207 11.2603 56.594 11.2803 55.518 11.3229C55.483 11.3241 55.4495 11.3377 55.4238 11.3612C55.3981 11.3847 55.3818 11.4165 55.378 11.4509C55.346 11.7429 55.328 12.0249 55.324 12.2969C55.2853 14.6929 55.2813 16.9649 55.312 19.1129C55.3123 19.1308 55.316 19.1484 55.323 19.1648C55.3299 19.1812 55.34 19.1961 55.3527 19.2085C55.3653 19.2209 55.3802 19.2307 55.3966 19.2373C55.4129 19.2439 55.4304 19.2472 55.448 19.2469L57.196 19.2149C57.2505 19.2139 57.3024 19.1915 57.3405 19.1526C57.3786 19.1137 57.4 19.0614 57.4 19.0069ZM57.364 14.1329V13.2569C57.364 13.236 57.3682 13.2153 57.3762 13.196C57.3843 13.1767 57.3961 13.1592 57.411 13.1445C57.4259 13.1298 57.4435 13.1182 57.4629 13.1104C57.4823 13.1026 57.5031 13.0987 57.524 13.0989L58.722 13.1009C58.7945 13.1012 58.8662 13.1162 58.9331 13.1451C59 13.174 59.0607 13.2162 59.1117 13.2693C59.1628 13.3224 59.2033 13.3854 59.2308 13.4546C59.2583 13.5239 59.2723 13.5981 59.272 13.6729V13.7249C59.2717 13.7998 59.2572 13.8739 59.2292 13.9429C59.2012 14.012 59.1604 14.0747 59.1089 14.1274C59.0575 14.1801 58.9965 14.2219 58.9294 14.2503C58.8623 14.2787 58.7905 14.2932 58.718 14.2929L57.52 14.2909C57.4784 14.2904 57.4388 14.2735 57.4096 14.244C57.3804 14.2144 57.364 14.1745 57.364 14.1329ZM66.356 12.939L64.864 12.967C64.6934 12.971 64.6034 12.887 64.594 12.715L64.54 11.651C64.5307 11.451 64.6254 11.3476 64.824 11.341C66.5614 11.2796 68.312 11.2703 70.076 11.313C70.232 11.317 70.3114 11.397 70.314 11.553L70.326 12.689C70.3274 12.849 70.248 12.9303 70.088 12.933L68.738 12.957C68.57 12.961 68.486 13.0463 68.486 13.213L68.456 18.919C68.4547 19.135 68.3467 19.2436 68.132 19.245L66.792 19.253C66.5827 19.2543 66.478 19.151 66.478 18.943L66.474 13.057C66.474 12.977 66.4347 12.9376 66.356 12.939ZM81.312 14.287L79.692 14.283C79.5987 14.2817 79.552 14.235 79.552 14.143L79.548 13.107C79.548 13.0083 79.5974 12.959 79.696 12.959L82.742 12.977C82.9887 12.9783 83.1127 12.8557 83.114 12.609L83.124 11.581C83.1267 11.365 83.02 11.2583 82.804 11.261L77.642 11.315C77.6162 11.3155 77.5913 11.3249 77.5716 11.3417C77.5519 11.3585 77.5386 11.3815 77.534 11.407C77.4727 11.771 77.4447 12.153 77.45 12.553C77.4834 14.897 77.4894 17.0623 77.468 19.049C77.4654 19.1983 77.5394 19.2737 77.69 19.275L82.738 19.309C83.0714 19.3103 83.2314 19.145 83.218 18.813L83.186 17.935C83.1767 17.6936 83.0514 17.5757 82.81 17.581L79.648 17.645C79.5827 17.6463 79.55 17.6143 79.55 17.549V16.109C79.55 16.049 79.5807 16.0177 79.642 16.015L81.312 15.957C81.644 15.9463 81.808 15.7743 81.804 15.441L81.794 14.763C81.7887 14.447 81.628 14.2883 81.312 14.287ZM96.432 12.9649L94.96 12.9829C94.8173 12.9843 94.7647 13.0536 94.802 13.1909C94.8473 13.3616 94.8567 13.5302 94.83 13.6969C94.8167 13.7796 94.768 13.8209 94.684 13.8209L93.102 13.8189C93.0741 13.8189 93.0464 13.8133 93.0207 13.8024C92.995 13.7915 92.9716 13.7755 92.9521 13.7554C92.9325 13.7353 92.9171 13.7115 92.9068 13.6853C92.8965 13.6591 92.8915 13.6311 92.892 13.6029L92.93 11.4029C92.9305 11.372 92.9432 11.3425 92.9653 11.3208C92.9873 11.2991 93.0171 11.2869 93.048 11.2869L98.346 11.2929C98.5487 11.2929 98.6507 11.3942 98.652 11.5969L98.678 19.0269C98.678 19.0604 98.6714 19.0936 98.6586 19.1246C98.6458 19.1555 98.6271 19.1836 98.6035 19.2072C98.5799 19.2308 98.5518 19.2495 98.521 19.2622C98.4902 19.2748 98.4573 19.2812 98.424 19.2809L93.1 19.2569C93.0455 19.2564 92.9934 19.2345 92.9549 19.196C92.9164 19.1575 92.8945 19.1054 92.894 19.0509L92.868 14.6189C92.8667 14.4416 92.9547 14.3536 93.132 14.3549L96.418 14.3669C96.453 14.3669 96.4866 14.3528 96.5113 14.3277C96.5361 14.3025 96.55 14.2685 96.55 14.2329V13.0829C96.55 13.0042 96.5107 12.9649 96.432 12.9649ZM96.5495 16.092C96.5495 16.0799 96.547 16.068 96.5424 16.0568C96.5377 16.0457 96.5309 16.0355 96.5223 16.027C96.5138 16.0185 96.5036 16.0118 96.4924 16.0072C96.4812 16.0026 96.4693 16.0003 96.4572 16.0003L94.9612 16.0055C94.9491 16.0056 94.9372 16.008 94.926 16.0127C94.9149 16.0173 94.9048 16.0241 94.8962 16.0327C94.8877 16.0413 94.881 16.0514 94.8764 16.0626C94.8718 16.0738 94.8695 16.0858 94.8695 16.0979L94.8745 17.5258C94.8745 17.5379 94.877 17.5499 94.8816 17.561C94.8863 17.5722 94.8931 17.5823 94.9017 17.5908C94.9102 17.5993 94.9204 17.6061 94.9316 17.6106C94.9428 17.6152 94.9547 17.6176 94.9668 17.6175L96.4628 17.6123C96.4749 17.6123 96.4868 17.6098 96.498 17.6052C96.5091 17.6005 96.5192 17.5937 96.5278 17.5851C96.5363 17.5765 96.543 17.5664 96.5476 17.5552C96.5522 17.544 96.5545 17.5321 96.5545 17.52L96.5495 16.092ZM111.53 16.115C111.531 16.0297 111.575 15.989 111.66 15.993C112.209 16.021 112.784 15.999 113.384 15.927C113.653 15.895 113.785 15.7437 113.78 15.473L113.764 14.747C113.757 14.4417 113.601 14.2884 113.296 14.287L111.702 14.283C111.582 14.283 111.522 14.223 111.522 14.103L111.52 13.121C111.52 13.0999 111.524 13.0788 111.532 13.0592C111.54 13.0395 111.551 13.0217 111.566 13.0066C111.581 12.9915 111.599 12.9796 111.618 12.9714C111.638 12.9632 111.659 12.959 111.68 12.959L114.736 12.977C114.976 12.9784 115.097 12.8584 115.098 12.617L115.1 11.555C115.101 11.355 115.003 11.2564 114.804 11.259L109.646 11.317C109.542 11.3184 109.487 11.371 109.48 11.475C109.435 12.2084 109.422 12.937 109.442 13.661C109.476 14.8525 109.467 16.0157 109.458 17.1913V17.1916V17.1918V17.1922V17.1927C109.453 17.8421 109.448 18.4953 109.45 19.159C109.451 19.1896 109.463 19.2188 109.485 19.2405C109.506 19.2621 109.535 19.2745 109.566 19.275L114.81 19.309C115.09 19.3104 115.223 19.171 115.208 18.891L115.164 17.983C115.149 17.711 115.006 17.5777 114.734 17.583L111.652 17.641C111.559 17.6424 111.513 17.5964 111.514 17.503L111.53 16.115ZM117.918 16.6949L117.924 18.9929C117.924 19.1383 117.852 19.2123 117.708 19.2149L115.988 19.2489C115.967 19.2495 115.946 19.2457 115.926 19.2379C115.907 19.2301 115.889 19.2184 115.874 19.2035C115.859 19.1886 115.847 19.1708 115.838 19.1511C115.83 19.1314 115.826 19.1103 115.826 19.0889L115.838 11.6169C115.839 11.4156 115.94 11.3129 116.14 11.3089C117.153 11.2849 118.149 11.2669 119.128 11.2549C119.635 11.2483 120.14 11.3816 120.644 11.6549C121.748 12.2529 122.142 13.4769 121.648 14.6429C121.392 15.2469 120.867 15.6956 120.072 15.9889C120.06 15.9933 120.049 16.0002 120.04 16.0093C120.031 16.0184 120.024 16.0294 120.02 16.0415C120.016 16.0535 120.014 16.0664 120.016 16.0791C120.017 16.0918 120.021 16.104 120.028 16.1149L121.756 18.9649C121.883 19.1743 121.824 19.2776 121.58 19.2749L120.284 19.2669C119.963 19.2643 119.713 19.1296 119.534 18.8629L118.056 16.6529C117.964 16.5156 117.918 16.5296 117.918 16.6949ZM117.894 13.2269L117.902 14.1789C117.902 14.2108 117.915 14.2413 117.937 14.2638C117.96 14.2863 117.99 14.2989 118.022 14.2989L119.264 14.2909C119.335 14.2904 119.405 14.2752 119.47 14.2462C119.535 14.2172 119.594 14.1749 119.643 14.1218C119.693 14.0687 119.732 14.0058 119.759 13.9366C119.785 13.8675 119.799 13.7935 119.798 13.7189V13.6629C119.797 13.5123 119.739 13.3683 119.638 13.2625C119.536 13.1568 119.399 13.0979 119.256 13.0989L118.014 13.1069C117.982 13.1069 117.952 13.1196 117.929 13.1421C117.907 13.1646 117.894 13.1951 117.894 13.2269ZM32.802 15.845C32.802 17.767 31.244 19.325 29.322 19.325C27.4001 19.325 25.842 17.767 25.842 15.845C25.842 13.9231 27.4001 12.365 29.322 12.365C31.244 12.365 32.802 13.9231 32.802 15.845Z" fill="white"/>
</g>
<defs>
<clipPath id="clip0_4132_8440">
<rect width="128.4" height="32" fill="white" transform="translate(0.800018 0.000976562)"/>
</clipPath>
</defs>
</svg>

<svg width="130" height="32" fill="none" xmlns="http://www.w3.org/2000/svg"><g clip-path="url(#a)"><path fill-rule="evenodd" clip-rule="evenodd" d="M17.03.001h-.378L.8 16.607v.378l15.692 15.016h.386l9.452-9.872a.524.524 0 0 0-.014-.74l-8.466-8.134c-.284-.273-.562-.268-.834.016l-3.006 3.144a.58.58 0 0 0-.111.631.57.57 0 0 0 .129.183l4.466 4.238a.646.646 0 0 1 .024.912l-1.624 1.718a.542.542 0 0 1-.764.02l-7.438-7.092a.556.556 0 0 1-.018-.786l7.948-8.332a.525.525 0 0 1 .746-.016l6.128 5.878a.506.506 0 0 0 .714-.016l3.102-3.232a.484.484 0 0 0-.016-.684L17.03.001Zm31.83 19.224c.764.041 1.513.057 2.246.046.356-.005.737.003 1.134.011.69.015 1.425.03 2.148-.021a.166.166 0 0 0 .15-.138c.039-.237.06-.471.062-.702.013-1.48.038-2.966.074-4.458a21.463 21.463 0 0 0-.062-2.278c-.023-.26-.164-.393-.424-.398l-5.038-.112a.229.229 0 0 0-.232.154c-.068.173-.101.36-.1.558.024 2.319.03 4.757.018 7.314 0 .016.008.024.024.024Zm2.05-1.878.022-4.2a.233.233 0 0 1 .234-.232l1.104.004a.524.524 0 0 1 .147.023.14.14 0 0 1 .044.025c.01.01.015.02.015.03l-.024 4.516c0 .02-.023.039-.061.053a.44.44 0 0 1-.145.021l-1.104-.004a.231.231 0 0 1-.165-.07.234.234 0 0 1-.067-.166Zm-6.298-1.216-.026 2.98c-.001.128-.066.191-.194.19l-1.704-.026c-.11-.003-.163-.059-.162-.168.027-2.199.019-4.335-.024-6.41-.005-.238.012-.476.028-.714.012-.18.025-.36.028-.542a.126.126 0 0 1 .124-.124l5.184-.058c.208-.001.311.101.31.308l-.006 1.04c-.001.248-.126.371-.374.37l-3.074-.02c-.083 0-.124.04-.124.122l.004 1.086c0 .075.037.113.112.114l1.718.02c.252.003.383.13.392.382l.034.864c.01.244-.108.373-.352.386l-1.786.088c-.07.004-.107.041-.108.112Zm30.128-4.532-.016 2.616a.138.138 0 0 1-.138.136h-1.39c-.09 0-.135-.045-.132-.134.03-.915.011-1.83-.058-2.744-.01-.132-.08-.205-.212-.218a5.263 5.263 0 0 0-1.528.044c-.185.035-.28.145-.282.332-.045 2.339-.035 4.767.032 7.286.007.253.137.374.39.362l1.352-.064c.187-.008.281-.106.284-.294l.036-2.71c.001-.107.055-.16.162-.16h1.316c.055 0 .107.022.146.06.039.038.06.09.062.146l.038 2.742c.003.196.101.29.296.282l1.454-.06c.173-.008.26-.099.26-.272v-7.394a.348.348 0 0 0-.38-.346 5.683 5.683 0 0 1-.51.014c-.344 0-.694 0-.998.114a.256.256 0 0 0-.184.262Zm13.908 5.972 1.248-.054c.104-.004.162-.058.174-.162l.018-.15c.016-.136-.045-.204-.182-.204h-.456c-.2 0-.303-.1-.31-.3l-.018-.498c-.007-.19.086-.292.278-.304a20.047 20.047 0 0 1 2.61.006c.157.01.235.095.232.254l-.038 2.828a.34.34 0 0 1-.34.334h-5.132c-.192 0-.288-.096-.288-.288l.022-7.58a.2.2 0 0 1 .162-.196c.17-.03.345-.043.522-.038 1.653.05 3.276.072 4.868.068a.177.177 0 0 1 .178.18l-.004 2.678c-.001.224-.113.335-.336.334l-1.452-.008c-.175-.001-.261-.09-.26-.264l.006-1.056c0-.068-.033-.102-.1-.102l-1.354.006c-.067 0-.1.033-.102.1l-.068 4.296c-.001.083.04.123.122.12Zm16.462-.152-.05-4.362a.132.132 0 0 1 .039-.096.13.13 0 0 1 .095-.04h1.4a.123.123 0 0 1 .086.036.113.113 0 0 1 .027.04.128.128 0 0 1 .009.048l-.044 5.934c-.001.205.101.305.306.3l1.558-.034a.28.28 0 0 0 .274-.28l-.044-7.558c0-.073-.037-.11-.112-.11-2.872.001-5.873-.025-9.004-.08a.354.354 0 0 0-.32.19c-.036.065-.052.18-.048.344.053 2.267.069 4.674.046 7.222-.001.164.08.247.244.248l1.476.004c.16 0 .237-.08.232-.24a67.794 67.794 0 0 1 .074-6.03c.004-.065.039-.098.104-.098l1.39-.008c.013 0 .026.002.039.007a.11.11 0 0 1 .033.022.105.105 0 0 1 .03.071v4.452c0 .2.1.3.3.3l1.582-.002c.187 0 .279-.093.278-.28Zm21.04-.206v-1.006c0-.128-.065-.191-.194-.19l-3.016.046c-.268.004-.405-.128-.41-.396l-.068-4.088a.273.273 0 0 1 .25-.28c1.16-.1 2.304-.066 3.437-.032.626.018 1.249.036 1.871.032.204-.001.313.1.328.304l.062.9c.016.244-.098.363-.342.358a27.826 27.826 0 0 0-3.092.09c-.156.015-.242.1-.258.256l-.08.836c-.016.152.053.23.206.232l3.204.064c.171.004.255.091.252.262l-.08 4.456a.226.226 0 0 1-.226.22l-5.126-.004c-.168 0-.257-.085-.266-.254l-.058-1.16a.303.303 0 0 1 .18-.291.297.297 0 0 1 .118-.025l2.998-.018c.207-.001.31-.105.31-.312ZM57.4 19.007V16.75c0-.188.053-.204.158-.048l1.458 2.18c.17.256.409.385.714.386l1.322.006c.236 0 .293-.1.172-.302l-1.734-2.868c-.032-.055-.018-.093.042-.114 1.224-.432 1.82-1.258 1.788-2.478-.036-1.412-1.418-2.248-2.722-2.25a73.074 73.074 0 0 0-3.08.06.147.147 0 0 0-.094.038.143.143 0 0 0-.046.09c-.032.292-.05.574-.054.846a224.4 224.4 0 0 0-.012 6.816.138.138 0 0 0 .085.124c.016.007.033.01.051.01l1.748-.032a.208.208 0 0 0 .204-.208Zm-.036-4.874v-.876a.16.16 0 0 1 .099-.147.16.16 0 0 1 .061-.011l1.198.002a.538.538 0 0 1 .39.168.572.572 0 0 1 .16.404v.052a.586.586 0 0 1-.163.402.55.55 0 0 1-.391.166l-1.198-.002a.158.158 0 0 1-.156-.158Zm8.992-1.194-1.492.028c-.17.004-.26-.08-.27-.252l-.054-1.064c-.01-.2.085-.303.284-.31a88.226 88.226 0 0 1 5.252-.028c.156.004.235.084.238.24l.012 1.136c.001.16-.078.241-.238.244l-1.35.024c-.168.004-.252.09-.252.256l-.03 5.706c-.001.216-.11.325-.324.326l-1.34.008c-.21.001-.314-.102-.314-.31l-.004-5.886c0-.08-.04-.12-.118-.118Zm14.956 1.348-1.62-.004c-.093-.001-.14-.048-.14-.14l-.004-1.036c0-.099.05-.148.148-.148l3.046.018c.247.001.37-.121.372-.368l.01-1.028c.003-.216-.104-.323-.32-.32l-5.162.054a.112.112 0 0 0-.108.092c-.061.364-.09.746-.084 1.146.033 2.344.04 4.51.018 6.496-.003.15.071.225.222.226l5.048.034c.333.001.493-.164.48-.496l-.032-.878c-.01-.241-.135-.36-.376-.354l-3.162.064c-.065.001-.098-.03-.098-.096v-1.44c0-.06.03-.091.092-.094l1.67-.058c.332-.01.496-.183.492-.516l-.01-.678c-.005-.316-.166-.475-.482-.476Zm15.12-1.322-1.472.018c-.143.001-.195.07-.158.208.045.17.055.34.028.506-.013.083-.062.124-.146.124l-1.582-.002a.208.208 0 0 1-.195-.134.215.215 0 0 1-.015-.082l.038-2.2a.118.118 0 0 1 .118-.116l5.298.006c.203 0 .305.101.306.304l.026 7.43a.256.256 0 0 1-.157.235.25.25 0 0 1-.097.019l-5.324-.024a.208.208 0 0 1-.206-.206l-.026-4.432c-.001-.177.087-.265.264-.264l3.286.012a.13.13 0 0 0 .093-.04.135.135 0 0 0 .039-.094v-1.15c0-.079-.04-.118-.118-.118Zm.117 3.127a.093.093 0 0 0-.057-.085.092.092 0 0 0-.035-.007l-1.496.006a.093.093 0 0 0-.091.092l.004 1.428a.092.092 0 0 0 .093.091l1.496-.005a.093.093 0 0 0 .085-.057.092.092 0 0 0 .007-.035l-.006-1.428Zm14.981.023c.001-.085.045-.126.13-.122a10.14 10.14 0 0 0 1.724-.066c.269-.032.401-.183.396-.454l-.016-.726c-.007-.305-.163-.459-.468-.46l-1.594-.004c-.12 0-.18-.06-.18-.18l-.002-.982a.164.164 0 0 1 .098-.15.163.163 0 0 1 .062-.012l3.056.018c.24.001.361-.119.362-.36l.002-1.062c.001-.2-.097-.299-.296-.296l-5.158.058c-.104.001-.159.054-.166.158a24.59 24.59 0 0 0-.038 2.186c.034 1.191.025 2.355.016 3.53v.001c-.005.65-.01 1.303-.008 1.967a.12.12 0 0 0 .116.116l5.244.034c.28.001.413-.138.398-.418l-.044-.908c-.015-.272-.158-.405-.43-.4l-3.082.058c-.093.001-.139-.045-.138-.138l.016-1.388Zm6.388.58.006 2.298c0 .145-.072.22-.216.222l-1.72.034a.158.158 0 0 1-.162-.16l.012-7.472c.001-.201.102-.304.302-.308a261.5 261.5 0 0 1 2.988-.054c.507-.007 1.012.127 1.516.4 1.104.598 1.498 1.822 1.004 2.988-.256.604-.781 1.053-1.576 1.346a.087.087 0 0 0-.052.052c-.004.012-.006.025-.004.038a.077.077 0 0 0 .012.036l1.728 2.85c.127.21.068.313-.176.31l-1.296-.008a.863.863 0 0 1-.75-.404l-1.478-2.21c-.092-.137-.138-.123-.138.042Zm-.024-3.468.008.952c0 .032.013.062.035.085a.12.12 0 0 0 .085.035l1.242-.008a.514.514 0 0 0 .379-.17.573.573 0 0 0 .155-.402v-.056a.587.587 0 0 0-.16-.4.525.525 0 0 0-.382-.164l-1.242.008a.121.121 0 0 0-.085.035.122.122 0 0 0-.035.085Zm-85.092 2.618a3.48 3.48 0 1 1-6.96 0 3.48 3.48 0 0 1 6.96 0Z" fill="#fff"/></g><defs><clipPath id="a"><path fill="#fff" transform="translate(.8 .001)" d="M0 0h128.4v32H0z"/></clipPath></defs></svg>
